X: 4452
T: Bonnie Kate
R: reel
M: 4/4
K: Cmajor
|:A|GEcG AcGE|CEGE D2DA|GEGc AFAc|BdGB c2c:|
f|ecgc egca|gcec defa|gceg fadf|egde c2cf|
ecgc egca|gcec defd|cAFc BdGf|egde c2c||

